X:161
T:161  Duke Street   (Pe)
M: 9/8
L: 1/8
Z:Chris Pollington 2008
K:G
D|G2B BGB AFD| G2B BGB def| gfe dcB AFD|G2c BAB G2 :|
f|gfg efg afd| gfg eag  def |gfe dcB AFD|G2c BAB G2:|





